Dominus_Funeral/22/apps/google-plus.svg

<svg xmlns="http://www.w3.org/2000/svg" width="24" height="24" viewBox="0 0 6.35 6.35"><defs><linearGradient id="a"><stop offset="0"/><stop offset="1" stop-opacity="0"/></linearGradient></defs><path d="M2.65.34c-.6 0-1.03.13-1.4.44-.3.26-.47.63-.47 1 0 .56.42 1.16 1.23 1.16l.24-.01-.01.02c-.03.08-.06.15-.06.27 0 .22.1.35.2.48l.02.02h-.03a3.2 3.2 0 0 0-1.4.34c-.52.32-.56.78-.56.9C.4 5.5.9 6.03 2 6.03c1.27 0 1.94-.7 1.94-1.4 0-.52-.3-.77-.62-1.04l-.27-.21c-.08-.07-.2-.16-.2-.32s.1-.26.2-.35V2.7c.3-.23.64-.5.64-1.06 0-.57-.36-.86-.53-1h.46l.4-.25V.35A.03.03 0 0 0 4 .33zm-.54.28c.6 0 .93.8.93 1.36 0 .1 0 .36-.19.55a.76.76 0 0 1-.5.2c-.65 0-.93-.86-.93-1.32 0-.23.06-.41.17-.55a.69.69 0 0 1 .52-.24zm2.75 1.63a.03.03 0 0 0-.03.03V3h-.72a.03.03 0 0 0-.03.02v.32l.03.03h.72v.7c0 .03.02.04.03.04h.3c.02 0 .03-.01.03-.03v-.71h.72c.02 0 .03-.02.03-.03v-.32A.03.03 0 0 0 5.92 3H5.2v-.72a.03.03 0 0 0-.03-.03zm-2.4 1.68h.19c.55.4.8.6.8.99 0 .5-.4.8-1.08.8-.78 0-1.3-.36-1.3-.9 0-.36.2-.62.63-.77a3 3 0 0 1 .78-.12z" fill="#1a1a1a"/></svg>

<?xml version="1.0" encoding="UTF-8" standalone="no"?>
<svg
   xmlns:dc="http://purl.org/dc/elements/1.1/"
   xmlns:cc="http://creativecommons.org/ns#"
   xmlns:rdf="http://www.w3.org/1999/02/22-rdf-syntax-ns#"
   xmlns:svg="http://www.w3.org/2000/svg"
   xmlns="http://www.w3.org/2000/svg"
   xmlns:sodipodi="http://sodipodi.sourceforge.net/DTD/sodipodi-0.dtd"
   xmlns:inkscape="http://www.inkscape.org/namespaces/inkscape"
   width="24"
   height="24"
   viewBox="0 0 6.35 6.35"
   version="1.1"
   id="svg11"
   sodipodi:docname="google-plus.svg"
   inkscape:version="0.92.4 (5da689c313, 2019-01-14)">
  <metadata
     id="metadata15">
    <rdf:RDF>
      <cc:Work
         rdf:about="">
        <dc:format>image/svg+xml</dc:format>
        <dc:type
           rdf:resource="http://purl.org/dc/dcmitype/StillImage" />
        <dc:title></dc:title>
      </cc:Work>
    </rdf:RDF>
  </metadata>
  <sodipodi:namedview
     pagecolor="#ffffff"
     bordercolor="#666666"
     borderopacity="1"
     objecttolerance="10"
     gridtolerance="10"
     guidetolerance="10"
     inkscape:pageopacity="0"
     inkscape:pageshadow="2"
     inkscape:window-width="1138"
     inkscape:window-height="480"
     id="namedview13"
     showgrid="false"
     inkscape:zoom="9.8333333"
     inkscape:cx="1.0677966"
     inkscape:cy="12"
     inkscape:window-x="0"
     inkscape:window-y="25"
     inkscape:window-maximized="0"
     inkscape:current-layer="svg11" />
  <defs
     id="defs7">
    <linearGradient
       id="a">
      <stop
         offset="0"
         id="stop2" />
      <stop
         offset="1"
         stop-opacity="0"
         id="stop4" />
    </linearGradient>
  </defs>
  <path
     d="m 2.65,0.34 c -0.6,0 -1.03,0.13 -1.4,0.44 -0.3,0.26 -0.47,0.63 -0.47,1 0,0.56 0.42,1.16 1.23,1.16 L 2.25,2.93 2.24,2.95 C 2.21,3.03 2.18,3.1 2.18,3.22 c 0,0.22 0.1,0.35 0.2,0.48 L 2.4,3.72 H 2.37 A 3.2,3.2 0 0 0 0.97,4.06 C 0.45,4.38 0.41,4.84 0.41,4.96 0.4,5.5 0.9,6.03 2,6.03 3.27,6.03 3.94,5.33 3.94,4.63 3.94,4.11 3.64,3.86 3.32,3.59 L 3.05,3.38 C 2.97,3.31 2.85,3.22 2.85,3.06 2.85,2.9 2.95,2.8 3.05,2.71 V 2.7 C 3.35,2.47 3.69,2.2 3.69,1.64 3.69,1.07 3.33,0.78 3.16,0.64 H 3.62 L 4.02,0.39 V 0.35 A 0.03,0.03 0 0 0 4,0.33 Z M 2.11,0.62 c 0.6,0 0.93,0.8 0.93,1.36 0,0.1 0,0.36 -0.19,0.55 a 0.76,0.76 0 0 1 -0.5,0.2 C 1.7,2.73 1.42,1.87 1.42,1.41 1.42,1.18 1.48,1 1.59,0.86 A 0.69,0.69 0 0 1 2.11,0.62 Z M 4.86,2.25 A 0.03,0.03 0 0 0 4.83,2.28 V 3 H 4.11 A 0.03,0.03 0 0 0 4.08,3.02 v 0.32 l 0.03,0.03 h 0.72 v 0.7 c 0,0.03 0.02,0.04 0.03,0.04 h 0.3 C 5.18,4.11 5.19,4.1 5.19,4.08 V 3.37 h 0.72 c 0.02,0 0.03,-0.02 0.03,-0.03 V 3.02 A 0.03,0.03 0 0 0 5.92,3 H 5.2 V 2.28 A 0.03,0.03 0 0 0 5.17,2.25 Z m -2.4,1.68 h 0.19 c 0.55,0.4 0.8,0.6 0.8,0.99 0,0.5 -0.4,0.8 -1.08,0.8 -0.78,0 -1.3,-0.36 -1.3,-0.9 0,-0.36 0.2,-0.62 0.63,-0.77 A 3,3 0 0 1 2.48,3.93 Z"
     id="path9"
     inkscape:connector-curvature="0"
     style="fill:#1a1a1a" />
</svg>
